X:1
T:Title
%%score 1 2
L:1/8
Q:1/4=75
M:6/8
K:F
V:1 treble nm="Violin, Soprano"
V:2 bass nm="Violin, Bass"
V:1
 [CF][CF][CF] [FA][FG]F | [DB] [Fd]2- [Fd]2 [Ff] | [Fc]2 [Fc] F2 [FA] | [EG]6 | %4
w: 1.~Oh,~ what~ a~ joy ful~ as|sur ance~ * The~|gen tle~ Spir it~|brings!~|
 [CF][CF][CF] [FA][FG]F | [DB] [Fd]2- [Fd]2 [Ff] | [Fc]2 [GB] [FA]2 [EG] | F6 | %8
w: Oh,~ let~ us~ hon or~ and~|rev 'rence~ * His~|name~ a bove~ all~|kings.~|
 [EG]2 [EG] [Ec]2 [GB] | [FA] [Fc]2- [Fc]3 | [Fd]2 [Fd] [Ff]2 [Fd] | [Fc]6 | %12
w: ||||
 [CF][CF][CF] [FA][FG]F | [DB] [Fd]2- [Fd]2 [Ff] | [Fc]2 [GB] [FA]2 [EG] | F6 |] %16
w: ||||
V:2
 [F,A,][F,A,][F,A,] [F,C][F,B,][F,A,] | [B,,B,] [B,,B,]2- [B,,B,]2 [D,B,] | [F,A,]3 [A,C]2 [F,C] | %3
 [C,C]6 | [F,A,][F,A,][F,A,] [F,C][F,B,][F,A,] | [B,,B,] [B,,B,]2- [B,,B,]2 [D,B,] | %6
 [C,A,]2 [C,C] [C,C]2 [C,B,] | [F,,F,A,]6 | [C,C]2 [C,C] [C,C]2 [E,C] | [F,C] [F,A,]2- [F,A,]3 | %10
 B,2 B, [B,,D]2 [B,,B,] | [F,A,]6 | [F,A,][F,A,][F,A,] [F,C][F,B,][F,A,] | %13
 [B,,B,] [B,,B,]2- [B,,B,]2 [D,B,] | [C,A,]2 [C,C] [C,C]2 [C,B,] | [F,,F,A,]6 |] %16

